X: 2185
T: Mrs GARDEN OF TROUP
Q: "Strathspey."
R: Strathspey.
%R: strathspey
B: James Kerr "Merry Melodies" v.2 p.21 #185
Z: 2016 John Chambers <jc:trillian.mit.edu>
M: C
L: 1/16
K: F
[|\
vF3vGuF3ud vcF3d3uF | vEC3C3uF EFGE C2E2 |\
vF3vGuF3ud vcF3A3ud | vc3uf agfe gfed cBAG |\
vF3vGuF3ud vcF3d3uF |
vEC3C3uF EFGE C2E2 |\
vF3vGuF3ud vcF3A3uf | c3f agfe f4 (fa3) |]|\
vf3vcua3c b3ca3c | f3ua bagf veg3g3ua |
f3ca3c b3ca3c | bagf efge f4 uf3uc |\
vf3vcua3uc b3ca3c | vf3ua bagf veg3g3ua |\
vd3Bduf3 vc3Acuf3 | vc3uf agfe f4 (fa3) |]

%%sep 1 1 500
%%sep 1 1 500

